!!!COM: Haydn, Franz Joseph
!!!OTL: String Quartet in B-flat Major
!!!OPS: Opus 55
!!!ONM: No. 3
!!!OMD: Finale: Presto
!!!OMV: 4
!!!SCT: H III:62
!!!SCA: Thematisch-bibliographisches Werkevererzeichnis (A. van Hoboken)
!!!YOR: Dover Edition; reprint of Eulenburg Edition
!!!ENC: Walter Hewlett
!!!CDT: 1732/3/31/-1809/5/31/
!!!CNT: Oesterreich
!!!YEC: Copyright (c) 1994, 2000 Center for Computer Assisted Research in the Humanities
!!!YEM: Rights to all derivative editions reserved.
!!!YEM: Refer to licensing agreement for further details.
!!!YEN: United States of America
**kern	**dynam	**kern	**dynam	**kern	**dynam	**kern	**dynam
*I:Violoncello	*I:Violoncello	*I:Viola	*I:Viola	*I:Violino II	*I:Violino II	*I:Violino I	*I:Violino I
*>[A,A,B]	*	*>[A,A,B]	*	*>[A,A,B]	*	*>[A,A,B]	*
*>A	*	*>A	*	*>A	*	*>A	*
*clefF4	*	*clefC3	*	*clefG2	*	*clefG2	*
*k[b-e-]	*	*k[b-e-]	*	*k[b-e-]	*	*k[b-e-]	*
*B-:	*	*B-:	*	*B-:	*	*B-:	*
*M6/8	*	*M6/8	*	*M6/8	*	*M6/8	*
! Finale Presto	!	! Finale Presto	!	! Finale Presto	!	! Finale Presto	!
8r	.	8r	.	8r	.	(16bb-\LL	f
.	.	.	.	.	.	16aa\JJ)	.
2ryy	.	2ryy	.	2ryy	.	2ryy	.
8ryy	.	8ryy	.	8ryy	.	8ryy	.
=1	=1	=1	=1	=1	=1	=1	=1
4r	.	4r	.	4r	.	(16gg\LL	.
.	.	.	.	.	.	16ff\)	.
.	.	.	.	.	.	16ee-'\	.
.	.	.	.	.	.	16dd'\	.
8r	.	8r	.	8r	.	(16gg\	.
.	.	.	.	.	.	16ff\JJ)	.
4r	.	4r	.	4r	.	(16ee-\LL	.
.	.	.	.	.	.	16dd\)	.
.	.	.	.	.	.	16cc'\	.
.	.	.	.	.	.	16b-'\	.
(16e-\LL	f	(16e-\LL	f	(16ee-\LL	f	(16ee-\	.
16d\JJ)	.	16d\JJ)	.	16dd\JJ)	.	16dd\JJ)	.
=2	=2	=2	=2	=2	=2	=2	=2
16c'\LL	.	16c'/LL	.	16cc'/LL	.	16cc'/LL	.
16B-'\	.	16B-'/	.	16b-'/	.	16b-'/	.
16A'\	.	16A'/	.	16a'/	.	16a'/	.
16G'\	.	16G'/	.	16g'/	.	16g'/	.
16F'\	.	16F'/	.	16f'/	.	16f'/	.
16E-'\JJ	.	16E-'/JJ	.	16e-'/JJ	.	16e-'/JJ	.
8D'\L	.	8D'/L	.	8d'/L	.	16d/LL	.
.	.	.	.	.	.	16f/	.
8E-'\	.	8E-'/	.	8e-'/	.	16e-/	.
.	.	.	.	.	.	16g/	.
8F'\J	.	8F'/J	.	8f'/J	.	16f/	.
.	.	.	.	.	.	16a/JJ	.
=3	=3	=3	=3	=3	=3	=3	=3
8G'\L	.	8G'/L	.	8g'/L	.	16g\LL	.
.	.	.	.	.	.	16b-\	.
8A'\	.	8A'/	.	8a'/	.	16a\	.
.	.	.	.	.	.	16cc\	.
8B-'\J	.	8B-'/J	.	8b-'/J	.	16b-\	.
.	.	.	.	.	.	16dd\JJ	.
(4A\	.	(4c\	.	4.f/	.	16cc\LL	.
.	.	.	.	.	.	16dd\	.
.	.	.	.	.	.	16ee-\	.
.	.	.	.	.	.	16cc\	.
8B-\)	.	8B-/)	.	.	.	16dd\	.
.	.	.	.	.	.	16b-\JJ	.
=4	=4	=4	=4	=4	=4	=4	=4
8F'\L	.	8A'/L	.	8cc'\L	.	(16een\LL	.
.	.	.	.	.	.	16ff\)	.
8F'\	.	8A'/	.	8cc'\	.	(16ee\	.
.	.	.	.	.	.	16ff\)	.
8F'\J	.	8B-'/J	.	8dd'\J	.	16dd'\	.
.	.	.	.	.	.	16b-'\JJ	.
4F\	.	4A/	.	4cc\	.	4ff\	.
8r	.	8r	.	8r	.	(16bb-\LL	.
.	.	.	.	.	.	16aa\JJ)	.
=5	=5	=5	=5	=5	=5	=5	=5
4r	.	4r	.	4r	.	(16gg\LL	.
.	.	.	.	.	.	16ff\)	.
.	.	.	.	.	.	16ee-'\	.
.	.	.	.	.	.	16dd'\	.
8r	.	8r	.	8r	.	(16gg\	.
.	.	.	.	.	.	16ff\JJ)	.
4r	.	4r	.	4r	.	(16ee-\LL	.
.	.	.	.	.	.	16dd\)	.
.	.	.	.	.	.	16cc'\	.
.	.	.	.	.	.	16b-'\	.
(16e-\LL	.	(16e-\LL	.	(16ee-\LL	.	(16ee-\	.
16d\JJ)	.	16d\JJ)	.	16dd\JJ)	.	16dd\JJ)	.
=6	=6	=6	=6	=6	=6	=6	=6
16c'\LL	.	16c'/LL	.	16cc'/LL	.	16cc'/LL	.
16B-'\	.	16B-'/	.	16b-'/	.	16b-'/	.
16A'\	.	16A'/	.	16a'/	.	16a'/	.
16G'\	.	16G'/	.	16g'/	.	16g'/	.
16F'\	.	16F'/	.	16f'/	.	16f'/	.
16E-'\JJ	.	16E-'/JJ	.	16e-'/JJ	.	16e-'/JJ	.
8D'\L	.	8D'/L	.	8d'/L	.	16d/LL	.
.	.	.	.	.	.	16f/	.
8E-'\	.	8E-'/	.	8e-'/	.	16e-/	.
.	.	.	.	.	.	16g/	.
8F'\J	.	8F'/J	.	8f'/J	.	16f/	.
.	.	.	.	.	.	16a/JJ	.
=7	=7	=7	=7	=7	=7	=7	=7
8G'\L	.	8G'/L	.	8g'/L	.	16g\LL	.
.	.	.	.	.	.	16b-\	.
8A'\	.	8A'/	.	8a'/	.	16a\	.
.	.	.	.	.	.	16cc\	.
8B-'\J	.	8B-'/J	.	8b-'/J	.	16b-\	.
.	.	.	.	.	.	16dd\JJ	.
(4.E-\	.	4G/	.	4.cc\	.	16cc\LL	.
.	.	.	.	.	.	16gg\	.
.	.	.	.	.	.	16ff#\	.
.	.	.	.	.	.	16gg\	.
.	.	8g\	.	.	.	16ee-\	.
.	.	.	.	.	.	16cc\JJ	.
=8	=8	=8	=8	=8	=8	=8	=8
8F\L)	.	4d\	.	8b-\L	.	16b-\LL	.
.	.	.	.	.	.	16dd\	.
8F'\	.	.	.	16dd\L	.	16ffn\	.
.	.	.	.	16b-\	.	16dd\	.
8F'\J	.	16c\LL	.	16cc\	.	16ee-\	.
.	.	16e-\JJ	.	16a\JJ	.	16cc\JJ	.
4BB-/	.	16d\LL	>	16b-\LL	>	4b-\	.
.	.	16e-\	.	16cc\	.	.	.
.	.	16f\	.	16dd\	.	.	.
.	.	16g\	.	16ee-\	.	.	.
8r	.	16f\	.	16dd\	.	(8bb-\	p
.	.	16d\JJ	]	16b-\JJ	]	.	.
=9	=9	=9	=9	=9	=9	=9	=9
4F\	p	16c\LL	p	16ee-\LL	p	8aa\L)	.
.	.	16d\	.	16dd\	.	.	.
.	.	16e-\	.	16cc\	.	8aa'\	.
.	.	16d\	.	16b-\	.	.	.
8r	.	16c\	.	16a\	.	(16ccc\L	.
.	.	16e-\JJ	.	16cc\JJ	.	16ff\JJ)	.
4BB-/	.	16d\LL	.	16b-\LL	.	8fff'\L	.
.	.	16c\	.	16cc\	.	.	.
.	.	16B-\	.	16dd\	.	8fff'\	.
.	.	16c\	.	16cc\	.	.	.
8r	.	16d\	.	16b-\	.	(16ddd\L	.
.	.	16f\JJ	.	16dd\JJ	.	16bb-\JJ)	.
=10	=10	=10	=10	=10	=10	=10	=10
4F\	.	16c\LL	.	16ee-\LL	.	8aa'\L	.
.	.	16d\	.	16dd\	.	.	.
.	.	16e-\	.	16cc\	.	8aa'\	.
.	.	16d\	.	16b-\	.	.	.
8r	.	16c\	.	16a\	.	(16ccc\L	.
.	.	16e-\JJ	.	16cc\JJ	.	16ff\JJ)	.
4BB-/	.	16d\LL	.	16b-\LL	.	8bb-'\L	.
.	.	16e-\	.	16cc\	.	.	.
.	.	16f\	.	16dd\	.	8bb-'\	.
.	.	16g\	.	16ee-\	.	.	.
8r	.	16f\	.	16dd\	.	(8bb-\J	.
.	.	16d\JJ	.	16b-\JJ	.	.	.
=11	=11	=11	=11	=11	=11	=11	=11
8r	.	16c\LL	.	16ee-\LL	.	8aa\L)	.
.	.	16d\	.	16dd\	.	.	.
8F\L	.	16e-\	.	16cc\	.	8aa'\	.
.	.	16d\	.	16b-\	.	.	.
8F\J	.	16c\	.	16a\	.	(16ccc\L	.
.	.	16e-\JJ	.	16cc\JJ	.	16ff\JJ)	.
8r	.	16d\LL	.	16b-\LL	.	8fff'\L	.
.	.	16c\	.	16cc\	.	.	.
8BB-/L	.	16B-\	.	16dd\	.	8fff'\	.
.	.	16c\	.	16cc\	.	.	.
8BB-/J	.	16d\	.	16b-\	.	(16ddd\L	.
.	.	16f\JJ	.	16dd\JJ	.	16bb-\JJ)	.
=12	=12	=12	=12	=12	=12	=12	=12
8r	.	16c\LL	.	16ee-\LL	.	8aa'\L	.
.	.	16d\	.	16dd\	.	.	.
8F\L	.	16e-\	.	16cc\	.	8aa'\	.
.	.	16d\	.	16b-\	.	.	.
8F\J	.	16c\	.	16a\	.	(16ccc\L	.
.	.	16e-\JJ	.	16cc\JJ	.	16ff\JJ)	.
4BB-/	.	8d\L	.	8b-\L	.	8bb-\L	.
.	.	8d\	.	8b-\	.	8bb-\	.
8f#\	f	8a\J	f	16dd\L	f	16ddd\L	f
.	.	.	.	16cc#\JJ	.	16ccc#\JJ	.
=13	=13	=13	=13	=13	=13	=13	=13
8f#\L	.	8a\L	.	16dd\LL	.	16ddd\LL	.
.	.	.	.	16cc#\	.	16ccc#\	.
8f#\	.	8a\	.	16dd\	.	16ddd\	.
.	.	.	.	16cc#\	.	16ccc#\	.
8f#\J	.	8a\J	.	16dd\	.	16ddd\	.
.	.	.	.	16a\JJ	.	16aa\JJ	.
8g\L	.	8b-\L	.	16b-/LL	.	16bb-\LL	.
.	.	.	.	16a/	.	16aa\	.
8r	.	8r	.	16b-/	.	16bb-\	.
.	.	.	.	16g/	.	16gg\	.
8en\J	.	8gz\J	z	16ccnz/	z	16cccnz\	z
.	.	.	.	16bn/JJ	.	16bbn\JJ	.
=14	=14	=14	=14	=14	=14	=14	=14
8en\L	.	8g\L	.	16cc/LL	.	16ccc\LL	.
.	.	.	.	16bn/	.	16bbn\	.
8e\	.	8g\	.	16cc/	.	16ccc\	.
.	.	.	.	16b/	.	16bb\	.
8e\J	.	8g\J	.	16cc/	.	16ccc\	.
.	.	.	.	16g/JJ	.	16gg\JJ	.
4f\	.	4a\	.	16a/LL	.	16aa\LL	.
.	.	.	.	16g/	.	16gg\	.
.	.	.	.	16a/	.	16aa\	.
.	.	.	.	16f/J	.	16ff\	.
8r	.	8r	.	8a/J	.	16cc\	.
.	.	.	.	.	.	16ff\JJ	.
=15	=15	=15	=15	=15	=15	=15	=15
2.r	.	[2.cc\	.	8b-'/L	.	16een\LL	.
.	.	.	.	.	.	16gg\	.
.	.	.	.	(8b-/	.	16ee\	.
.	.	.	.	.	.	16cc\	.
.	.	.	.	8a/J)	.	16ff\	.
.	.	.	.	.	.	16aa\JJ	.
.	.	.	.	8en'/L	.	16gg\LL	.
.	.	.	.	.	.	16bb-\	.
.	.	.	.	(8e/	.	16gg\	.
.	.	.	.	.	.	16cc\	.
.	.	.	.	8f/J)	.	16aa\	.
.	.	.	.	.	.	16ff\JJ	.
=16	=16	=16	=16	=16	=16	=16	=16
8B-'\L	.	2.cc\]	.	8g'/L	.	16een\LL	.
.	.	.	.	.	.	16gg\	.
(8B-\	.	.	.	(8g/	.	16ee\	.
.	.	.	.	.	.	16cc\	.
8A\J)	.	.	.	8a/J)	.	16ff\	.
.	.	.	.	.	.	16aa\JJ	.
8En'\L	.	.	.	8b-'/L	.	16gg\LL	.
.	.	.	.	.	.	16bb-\	.
(8E\	.	.	.	(8b-/	.	16gg\	.
.	.	.	.	.	.	16cc\	.
8F\J)	.	.	.	8a/J)	.	16aa\	.
.	.	.	.	.	.	16ff\JJ	.
=17	=17	=17	=17	=17	=17	=17	=17
4C/	.	16c\LL	.	8cc\L	.	8ccc\L	.
.	.	16en\	.	.	.	.	.
.	.	16d\	.	8cc\	.	8ccc\	.
.	.	16f\	.	.	.	.	.
8r	.	16e\	.	8cc\J	.	8ccc\J	.
.	.	16g\JJ	.	.	.	.	.
4r	.	16f\LL	.	8cc\L	.	8ccc\L	.
.	.	16a\	.	.	.	.	.
.	.	16g\	.	8cc\	.	8ccc\	.
.	.	16f\	.	.	.	.	.
8r	.	16e\	.	8cc\J	.	8ccc\J	.
.	.	16d\JJ	.	.	.	.	.
=18	=18	=18	=18	=18	=18	=18	=18
16C\LL	.	16en\LL	.	8cc\L	.	8ccc\L	.
16En\	.	16c\	.	.	.	.	.
16D\	.	16f\	.	8cc\	.	8ccc\	.
16F\	.	16d\	.	.	.	.	.
16E\	.	16g\	.	8cc\J	.	8ccc\J	.
16G\JJ	.	16e\JJ	.	.	.	.	.
16F\LL	.	16a\LL	.	8cc\L	.	8ccc\L	.
16A\	.	16f\	.	.	.	.	.
16G\	.	16e\	.	8cc\	.	8ccc\	.
16F\	.	16d\	.	.	.	.	.
16E\	.	16c\	.	8cc\J	.	8ccc\J	.
16D\JJ	.	16Bn\JJ	.	.	.	.	.
=19	=19	=19	=19	=19	=19	=19	=19
(8C/L	.	(8c\L	.	(8cc\L	.	(8ccc\L	.
8D/)	.	8d\)	.	8ff\)	.	8bbn\)	.
8D'/J	.	8d'\J	.	8ff'\J	.	8bb'\J	.
(8D\L	.	(8d\L	.	(8ff\L	.	(8bb\L	.
8En\)	.	8c\)	.	8gg\)	.	8bb-\)	.
8E'\J	.	8c'\J	.	8gg'\J	.	8bb-'\J	.
=20	=20	=20	=20	=20	=20	=20	=20
[4.Enz\	z	[4.cz\	z	[4.ggz\	z	[4.bb-z\	z
8E\]	.	8c\]	.	8gg\]	.	8bb-\L]	.
8r	.	8r	.	8r	.	&(16bb-\L)	.
.	.	.	.	.	.	16aa\	.
8r	.	8r	.	8r	.	16bb-\	.
.	.	.	.	.	.	16ccc\JJ&)	.
=21	=21	=21	=21	=21	=21	=21	=21
2.r	.	2.r	.	2.r	.	8ddd\	.
.	.	.	.	.	.	8r	.
.	.	.	.	.	.	8r	.
.	.	.	.	.	.	4r	.
.	.	.	.	.	.	8aa'\	p
=22	=22	=22	=22	=22	=22	=22	=22
2.r	.	(16F/LL	p	(8ff\L	p	(8aa\L	.
.	.	16G/	.	.	.	.	.
.	.	16A/	.	8gg\	.	8bb-\	.
.	.	16B-/	.	.	.	.	.
.	.	16c/	.	8ff\J)	.	8aa\J)	.
.	.	16d/JJ	.	.	.	.	.
.	.	16en\LL	.	8cc'\L	.	8gg'\L)	.
.	.	16f\	.	.	.	.	.
.	.	16g\	.	8cc'\	.	8ff'\	.
.	.	16a\	.	.	.	.	.
.	.	16b-\	.	8cc'\J	.	8gg'\J	.
.	.	16cc\JJ)	.	.	.	.	.
=23	=23	=23	=23	=23	=23	=23	=23
2.r	.	4a\	.	(16cc\LL	<	4ff\	<
.	.	.	.	16a\	.	.	.
.	.	.	.	16f\	.	.	.
.	.	.	.	16a\	.	.	.
.	.	8r	.	16cc\	.	8aa\	]
.	.	.	.	16ff\JJ)	]	.	.
.	.	4r	.	(8aa\L	>	(8ccc\L	>
.	.	.	.	8gg#\	.	8bbn\	.
.	.	8r	.	8ggn\J)	]	8bb-\J)	]
=24	=24	=24	=24	=24	=24	=24	=24
(16FF/LL	p	2.r	.	(8ff\L	.	(8aa\L	.
16GG/	.	.	.	.	.	.	.
16AA/	.	.	.	8gg\	.	8bb-\	.
16BB-/	.	.	.	.	.	.	.
16C/	.	.	.	8ff\J)	.	8aa\J)	.
16D/JJ	.	.	.	.	.	.	.
16En\LL	.	.	.	8cc'\L	.	8gg'\L)	.
16F\	.	.	.	.	.	.	.
16G\	.	.	.	8cc'\	.	8ff'\	.
16A\	.	.	.	.	.	.	.
16B-\	.	.	.	8cc'\J	.	8gg'\J	.
16c\JJ)	.	.	.	.	.	.	.
=25	=25	=25	=25	=25	=25	=25	=25
4A\	.	2.r	.	(16cc\LL	.	4ff\	.
.	.	.	.	16a\	.	.	.
.	.	.	.	16f\	.	.	.
.	.	.	.	16a\	.	.	.
8r	.	.	.	16cc\	.	8aa\	.
.	.	.	.	16ff\JJ)	.	.	.
!	!	!	!	! cresc.	!	! cresc.	!
4r	.	.	.	(8aa\L	.	(8ccc\L	.
.	.	.	.	8gg#\	.	8bbn\	.
8r	.	.	.	8ggn\J)	.	8bb-\J)	.
=26	=26	=26	=26	=26	=26	=26	=26
2.r	.	(16F/LL	f	(8ff\L	f	(8aa\L	f
.	.	16G/	.	.	.	.	.
.	.	16A/	.	8gg\	.	8bb-\	.
.	.	16B-/	.	.	.	.	.
.	.	16c/	.	8ff\J)	.	8aa\J)	.
.	.	16d/JJ	.	.	.	.	.
.	.	16en\LL	.	8cc'\L	.	8gg'\L)	.
.	.	16f\	.	.	.	.	.
.	.	16g\	.	8cc'\	.	8ff'\	.
.	.	16a\	.	.	.	.	.
.	.	16b-\	.	8cc'\J	.	8gg'\J	.
.	.	16cc\JJ)	.	.	.	.	.
=27	=27	=27	=27	=27	=27	=27	=27
(16FF/LL	f	(16a\LL	.	4cc\	.	[4.ff\	.
16GG/	.	16b-\	.	.	.	.	.
16AA/	.	16cc\	.	.	.	.	.
16BB-/	.	16dd\	.	.	.	.	.
16C/	.	16ee-\	.	(16cc\LL	.	.	.
16D/JJ)	.	16dd\JJ)	.	16b-\JJ)	.	.	.
8E-\L	.	8cc'\L	.	8a'\L	.	8ff\L]	.
8E-\	.	8b-'\	.	8b-'\	.	8gg'\	.
8E-\J	.	8a'\J	.	8cc'\J	.	8aa'\J	.
=28	=28	=28	=28	=28	=28	=28	=28
8D\L	.	8f\L	.	4.b-\	.	(4.bb-T\	.
8D\	.	8f\	.	.	.	.	.
8D\J	.	8f\J	.	.	.	.	.
!	!	!	!	!	!	! 16aaP/LL	!
!	!	!	!	!	!	! 16bb-P/JJ)	!
8BB-/L	.	8f\L	.	4bb-\	.	4dddp\	.
8BB-/	.	8f\	.	.	.	.	.
8BB-/J	.	8f\J	.	8bb-\	.	8ddd\	.
=29	=29	=29	=29	=29	=29	=29	=29
8C/L	.	8cc\L	.	8aa'\L	.	8ccc'\L	.
8C/	.	8cc\	.	8ff'\	.	8aa'\	.
8C/J	.	8cc\J	.	8aa'\J	.	8ccc'\J	.
8C/L	.	8c\L	.	8gg'\L)	.	8bb-'\L)	.
8C/	.	8c\	.	8ff'\	.	8aa'\	.
8C/J	.	8c\J	.	8een'\J	.	8gg'\J	.
=30	=30	=30	=30	=30	=30	=30	=30
4F\	.	4A/	.	4ff\	.	(16ff\LL	.
.	.	.	.	.	.	16een\	.
.	.	.	.	.	.	16ff\	.
.	.	.	.	.	.	16gg\	.
8r	.	8r	.	8r	.	16aa\	.
.	.	.	.	.	.	16bb-\JJ)	.
4r	.	4r	.	4r	.	8ccc'\L	>
.	.	.	.	.	.	8ccc'\	.
8r	.	8f'\	p	8a'/	p	8ccc'\J	]
=31	=31	=31	=31	=31	=31	=31	=31
2.r	.	(8f\L	.	(8a/L	.	[2.ccc\	p
.	.	8g\	.	8b-/	.	.	.
.	.	8f\J)	.	8a/J)	.	.	.
.	.	4c\	.	8g'/L)	.	.	.
.	.	.	.	8f'/	.	.	.
.	.	8c\	.	8g'/J	.	.	.
=32	=32	=32	=32	=32	=32	=32	=32
2.r	.	4A/	<	4f/	<	2.ccc\_	.
.	.	8f\	]	8a/	]	.	.
.	.	(8a\L	>	(8cc\L	>	.	.
.	.	8g#\	.	8bn\	.	.	.
.	.	8gn\J)	]	8b-\J)	]	.	.
=33	=33	=33	=33	=33	=33	=33	=33
(16FF/LL	p	(8f\L	.	(8a/L	.	2.ccc\_	.
16GG/	.	.	.	.	.	.	.
16AA/	.	8g\	.	8b-/	.	.	.
16BB-/	.	.	.	.	.	.	.
16C/	.	8f\J)	.	8a/J)	.	.	.
16D/JJ	.	.	.	.	.	.	.
16En\LL	.	8c'\L	.	8g'/L)	.	.	.
16F\	.	.	.	.	.	.	.
16G\	.	8c'\	.	8f'/	.	.	.
16A\	.	.	.	.	.	.	.
16B-\	.	8c'\J	.	8g'/J	.	.	.
16c\JJ)	.	.	.	.	.	.	.
=34	=34	=34	=34	=34	=34	=34	=34
!	!	! cresc.	!	!	!	!	!
8A\L	.	[4.c\	.	8f'\L	.	8ccc\L]	.
! cresc.	!	!	!	! cresc.	!	! cresc.	!
8A\	.	.	.	8ff'\	.	8fff'\	.
8A\J	.	.	.	8ff'\J	.	8fff'\J	.
8A\L	.	4c\]	.	(8ff\L	.	(8fff\L	.
8A\	.	.	.	8een\	.	8eeen\	.
8A\J	.	8f\	.	8ee-\J)	.	8eee-\J)	.
=35	=35	=35	=35	=35	=35	=35	=35
8B-\L	.	8f\L	.	(4.cc#\	.	(4.ccc#\	.
8B-\	.	8f\	.	.	.	.	.
8B-\J	.	8f\J	.	.	.	.	.
8B-\L	.	8d\L	.	8dd\L)	.	8ddd\L)	.
!	!	!	!	!	!	! 8va below	!
8B-\	.	8d\	.	(16een\L	.	(16eeen\L	.
.	.	.	.	16ff#\	.	16fff#\	.
8B-\J	.	8d\J	.	16gg\	.	16ggg\	.
.	.	.	.	16aa\JJ)	.	16aaa\JJ)	.
=36	=36	=36	=36	=36	=36	=36	=36
8B-\L	.	8g\L	.	8bb-'\L	.	8bbb-'\L	.
8B-\	.	8g\	.	8ddd'\	.	8bbb-'\	.
8B-\J	.	8g\J	.	8ddd'\J	.	8bbb-'\J	.
8B-\L	.	8g\L	.	8ddd'\L	.	8bbb-'\L	.
8B-\	.	8a\	.	8cccn'\	.	8aaa'\	.
8B-\J	.	8b-\J	.	8bb-'\J	.	8ggg'\J	.
=37	=37	=37	=37	=37	=37	=37	=37
8c\L	f	8cc\L	f	(8aa\L	f	4.fffn\	f
8c\	.	8cc\	.	8ccc\)	.	.	.
8c\J	.	8cc\J	.	8ff'\J	.	.	.
8C/L	.	8b-\L	.	(4.eent\	.	(4.gggT\	.
8C/	.	8b-\	.	.	.	.	.
8C/J	.	8b-\J	.	.	.	.	.
!	!	!	!	! 16ddP/LL	!	! 16fffP/LL	!
!	!	!	!	! 16eeP/JJ)	!	! 16gggP/JJ)	!
=38	=38	=38	=38	=38	=38	=38	=38
8F\L	.	8a\L	.	8ffp\L	.	(16fffp\LL	.
.	.	.	.	.	.	16aaa\)	.
8F\	.	8f\	.	8a\	.	16cccc'\	.
.	.	.	.	.	.	16aaa'\	.
8F\J	.	8f\J	.	8a\J	.	16cccc'\	.
.	.	.	.	.	.	16aaa'\JJ	.
8F\L	.	8f\L	.	8a/L	.	(16fff\LL	.
.	.	.	.	.	.	16aaa\)	.
8F\	.	8f\	.	8a/	.	16cccc'\	.
.	.	.	.	.	.	16aaa'\	.
8F\J	.	8f\J	.	8a/J	.	16cccc'\	.
.	.	.	.	.	.	16aaa'\JJ	.
=39	=39	=39	=39	=39	=39	=39	=39
4F\	.	(16f\LL	.	(16a/LL	.	8fff\L	.
.	.	16en\)	.	16g#/)	.	.	.
.	.	(16f\	.	(16a/	.	8r	.
.	.	16e\)	.	16g#/)	.	.	.
8r	.	(16f\	.	(16a/	.	8fff\J	.
.	.	16g\JJ)	.	16b-/JJ)	.	.	.
4r	.	(16a\LL	.	(16cc\LL	.	8fff\L	.
.	.	16g#\)	.	16bn\)	.	.	.
.	.	(16a\	.	(16cc\	.	8r	.
.	.	16g#\)	.	16b\)	.	.	.
8r	.	(16a\	.	(16cc\	.	8fff\J	.
.	.	16b-\JJ)	.	16dd\JJ)	.	.	.
=40	=40	=40	=40	=40	=40	=40	=40
(16f\LL	>	8cc\L	.	8ee-\L	.	8fff\L	.
16en\)	.	.	.	.	.	.	.
(16f\	.	8r	.	8r	.	8r	.
16e\)	.	.	.	.	.	.	.
(16f\	.	8cc'\J	p	8ee-'\J	p	8fff'\J	p
16g\JJ)	]	.	.	.	.	.	.
8a'\L	p	8cc'\L	.	8ee-'\L	.	8fff'\L	.
8a'\	.	8cc'\	.	8ee-'\	.	8fff'\	.
8a'\J	.	8cc'\J	.	8ee-'\J	.	8fff'\J	.
=41	=41	=41	=41	=41	=41	=41	=41
4a\	.	4cc\	.	4ee-\	.	4fff\	.
!	!	!	!	!	!	! end 8va	!
8r	.	8r	.	8r	.	8r	.
4r	.	4r	.	4r	.	4r	.
=:!!:	=:!!:	=:!!:	=:!!:	=:!!:	=:!!:	=:!!:	=:!!:
*>B	*	*>B	*	*>B	*	*>B	*
(16D\LL	f	8r	.	8r	.	8r	.
16En\JJ)	.	.	.	.	.	.	.
2ryy	.	2ryy	.	2ryy	.	2ryy	.
8ryy	.	8ryy	.	8ryy	.	8ryy	.
=42	=42	=42	=42	=42	=42	=42	=42
(16F#\LL	.	8r	.	2.r	.	2.r	.
16G\)	.	.	.	.	.	.	.
16F#\	.	16d'\LL	f	.	.	.	.
16G\	.	16en'\	.	.	.	.	.
16A\	.	16f#'\	.	.	.	.	.
16B-\JJ	.	16g'\JJ	.	.	.	.	.
(16A\LL	.	(16f#\LL	.	.	.	.	.
16B-\)	.	16g\)	.	.	.	.	.
16c'\	.	16a'\	.	.	.	.	.
16d'\	.	16b-'\	.	.	.	.	.
16e-'\	.	16cc'\	.	.	.	.	.
16d'\JJ	.	16dd'\JJ	.	.	.	.	.
=43	=43	=43	=43	=43	=43	=43	=43
16c'\LL	.	16ee-'\LL	.	4r	.	2.r	.
16B-'\	.	16dd'\	.	.	.	.	.
16A'\	.	16cc'\	.	.	.	.	.
16G'\	.	16b-'\	.	.	.	.	.
16F#'\	.	16a'\	.	8r	.	.	.
16E-'\JJ	.	16g'\JJ	.	.	.	.	.
16D/LL	.	16f#\LL	.	4r	.	.	.
16E-/	.	16g\	.	.	.	.	.
16D/	.	16f#\	.	.	.	.	.
16C/	.	16e-\	.	.	.	.	.
16BB-/	.	16d\	.	(16g/LL	f	.	.
16AA/JJ	.	16c\JJ	.	16a/JJ)	.	.	.
=44	=44	=44	=44	=44	=44	=44	=44
[2.GG/	.	8Bn\L	.	(16bn\LL	.	2.r	.
.	.	.	.	16cc\)	.	.	.
.	.	16fn'\L	.	16b'\	.	.	.
.	.	16e-'\	.	16cc'\	.	.	.
.	.	16d'\	.	16dd'\	.	.	.
.	.	16c'\JJ	.	16ee-'\JJ	.	.	.
.	.	(16B\LL	.	(16dd\LL	.	.	.
.	.	16c\)	.	16ee-\)	.	.	.
.	.	16d'\	.	16ff'\	.	.	.
.	.	16e-'\	.	16gg'\	.	.	.
.	.	16f'\	.	16aa-'\	.	.	.
.	.	16g'\JJ	.	16gg'\JJ	.	.	.
=45	=45	=45	=45	=45	=45	=45	=45
2.GG/]	.	16a-'\LL	.	16ff'\LL	.	4r	.
.	.	16g'\	.	16ee-'\	.	.	.
.	.	16f'\	.	16dd'\	.	.	.
.	.	16e-'\	.	16cc'\	.	.	.
.	.	16d'\	.	16bn'\	.	8r	.
.	.	16c'\JJ	.	16a-'\JJ	.	.	.
.	.	16Bn/LL	.	16g/LL	.	4r	.
.	.	16c/	.	16a-/	.	.	.
.	.	16B/	.	16g/	.	.	.
.	.	16G/	.	16f/	.	.	.
.	.	16An/	.	16e-/	.	(16gg\LL	f
.	.	16B/JJ	.	16d/JJ	.	16ff\JJ)	.
=46	=46	=46	=46	=46	=46	=46	=46
(16c\LL	.	8c\L	.	8c\L	.	(16ee-\LL	.
16B-\)	.	.	.	.	.	16dd\J)	.
(16A-\	.	8r	.	(16ccc\L	.	8cc\J	.
16G\J)	.	.	.	16bb-\)	.	.	.
8F\J	.	(16f\L	.	(16aa-\	.	8r	.
.	.	16e-\JJ)	.	16gg\JJ)	.	.	.
(16B-\LL	.	(16d\LL	.	8ff\	.	8r	.
16A-\)	.	16c\J)	.	.	.	.	.
(16G\	.	8B-\J	.	8r	.	(16bb-\LL	.
16F\J)	.	.	.	.	.	16aa-\)	.
8E-\J	.	8r	.	8r	.	16gg'\	.
.	.	.	.	.	.	16ff'\JJ	.
=47	=47	=47	=47	=47	=47	=47	=47
2.r	.	16g'\LL	.	4r	.	16ee-'\LL	.
.	.	16f'\	.	.	.	16ff'\	.
.	.	16e-'\	.	.	.	16gg'\	.
.	.	16d'\	.	.	.	16ff'\	.
.	.	16c'\	.	(16e-/LL	.	16ee-'\	.
.	.	16d'\JJ	.	16f/JJ)	.	16dd'\JJ	.
.	.	16e-\LL	.	8g/L	.	16cc\LL	.
.	.	16d\	.	.	.	16dd\	.
.	.	16c\	.	8r	.	16ee-\	.
.	.	16B-\	.	.	.	16dd\	.
.	.	16A\	.	(16c/L	.	16cc\	.
.	.	16B-\JJ	.	16d/JJ)	.	16b-\JJ	.
=48	=48	=48	=48	=48	=48	=48	=48
(16c\LL	.	(2.c\	.	8e-/L	.	16an/LL	.
16B-\)	.	.	.	.	.	16b-/	.
(16An\	.	.	.	8r	.	16cc/	.
16G\)	.	.	.	.	.	16b-/	.
(16F#\	.	.	.	(16An/L	.	16a/	.
16E-\JJ)	.	.	.	16B-/JJ)	.	16g/JJ	.
16D/LL	.	.	.	8c/	.	8f#/	.
16E-/	.	.	.	.	.	.	.
16D/	.	.	.	8r	.	8r	.
16C/	.	.	.	.	.	.	.
16BB-/	.	.	.	8r	.	8r	.
16AA/JJ	.	.	.	.	.	.	.
=49	=49	=49	=49	=49	=49	=49	=49
4.Gz/ 4.GG/	z	8B-\L)	.	8G/	.	16g'\LL	.
.	.	.	.	.	.	16b-'\	.
.	.	8g\	.	8r	.	16dd'\	.
.	.	.	.	.	.	16gg'\	.
.	.	8b-\J	.	8r	.	16dd'\	.
.	.	.	.	.	.	16b-'\JJ	.
4.F#z\	z	8d\L	.	16a'\LL	.	8a/	.
.	.	.	.	16cc'\	.	.	.
.	.	8a\	.	16ff#'\	.	8r	.
.	.	.	.	16aa'\	.	.	.
.	.	8cc\J	.	16ff#'\	.	8r	.
.	.	.	.	16cc'\JJ	.	.	.
=50	=50	=50	=50	=50	=50	=50	=50
4.Gz\	z	8d\L	.	8b-\	.	16g\LL	.
.	.	.	.	.	.	16b-\	.
.	.	8g\	.	8r	.	16dd\	.
.	.	.	.	.	.	16gg\	.
.	.	8b-\J	.	8r	.	16dd\	.
.	.	.	.	.	.	16b-\JJ	.
4.E-z\	z	8e-\ 8G\L	.	16g\LL	.	8g/	.
.	.	.	.	16b-\	.	.	.
.	.	8g\	.	16ee-\	.	8r	.
.	.	.	.	16gg\	.	.	.
.	.	8b-\J	.	16ee-\	.	8r	.
.	.	.	.	16b-\JJ	.	.	.
=51	=51	=51	=51	=51	=51	=51	=51
! sempre sf	!	!	!	!	!	!	!
4.C/	.	8e-\L	.	8a/	.	16a\LL	.
.	.	.	.	.	.	16cc\	.
.	.	8an\	.	8r	.	16ee-\	.
.	.	.	.	.	.	16gg\	.
.	.	8cc\J	.	8r	.	16ee-\	.
.	.	.	.	.	.	16cc\JJ	.
4.D\	.	8f\L	.	16bn\LL	.	8bn\	.
.	.	.	.	16dd\	.	.	.
.	.	8bn\	.	16ffn\	.	8r	.
.	.	.	.	16aa-\	.	.	.
.	.	8dd\J	.	16ff\	.	8r	.
.	.	.	.	16dd\JJ	.	.	.
=52	=52	=52	=52	=52	=52	=52	=52
4.E-\	.	8c\L	.	8cc\	.	16g\LL	.
.	.	.	.	.	.	16cc\	.
.	.	8g\	.	8r	.	16ee-\	.
.	.	.	.	.	.	16gg\	.
.	.	8cc\J	.	8r	.	16ee-\	.
.	.	.	.	.	.	16cc\JJ	.
4.EE-/	.	8d-\L	.	16g\LL	.	8b-\	.
.	.	.	.	16b-\	.	.	.
.	.	8g\	.	16dd-\	.	8r	.
.	.	.	.	16gg\	.	.	.
.	.	8b-\J	.	16dd-\	.	8r	.
.	.	.	.	16b-\JJ	.	.	.
=53	=53	=53	=53	=53	=53	=53	=53
4.E-\	.	8c\L	.	8a-/	.	16a-\LL	.
.	.	.	.	.	.	16cc\	.
.	.	8a-\	.	8r	.	16ee-\	.
.	.	.	.	.	.	16aa-\	.
.	.	8cc\J	.	8r	.	16ee-\	.
.	.	.	.	.	.	16cc\JJ	.
4.En\	.	8c\L	.	16g\LL	.	8b-\	.
.	.	.	.	16b-\	.	.	.
.	.	8g\	.	16een\	.	8r	.
.	.	.	.	16gg\	.	.	.
.	.	8b-\J	.	16ee\	.	8r	.
.	.	.	.	16b-\JJ	.	.	.
=54	=54	=54	=54	=54	=54	=54	=54
4.E-\	.	8f\L	.	8an/	.	16an\LL	.
.	.	.	.	.	.	16cc\	.
.	.	8an\	.	8r	.	16ff\	.
.	.	.	.	.	.	16aa\	.
.	.	8cc\J	.	8r	.	16ff\	.
.	.	.	.	.	.	16cc\JJ	.
4.D-\	.	8f\L	.	16b-\LL	.	8b-\	.
.	.	.	.	16dd-\	.	.	.
.	.	8b-\	.	16ff\	.	8r	.
.	.	.	.	16bb-\	.	.	.
.	.	8dd-\J	.	16ff\	.	8r	.
.	.	.	.	16dd-\JJ	.	.	.
=55	=55	=55	=55	=55	=55	=55	=55
4.G-\	.	8g-\L	.	8b-\	.	16b-\LL	.
.	.	.	.	.	.	16dd-\	.
.	.	8b-\	.	8r	.	16gg-\	.
.	.	.	.	.	.	16bb-\	.
.	.	8dd-\J	.	8r	.	16gg-\	.
.	.	.	.	.	.	16dd-\JJ	.
4.E-\	.	8g-\L	.	16b-\LL	.	8b-\	.
.	.	.	.	16ee-\	.	.	.
.	.	8b-\	.	16gg-\	.	8r	.
.	.	.	.	16bb-\	.	.	.
.	.	8ee-\J	.	16gg-\	.	8r	.
.	.	.	.	16ee-\JJ	.	.	.
=56	=56	=56	=56	=56	=56	=56	=56
4.BB-/	.	8dn\L	.	8b-\	.	16b-\LL	.
.	.	.	.	.	.	16ddn\	.
.	.	8b-\	.	8r	.	16ff\	.
.	.	.	.	.	.	16bb-\	.
.	.	8dd\J	.	8r	.	16ff\	.
.	.	.	.	.	.	16dd\JJ	.
4.Dn\	.	8f\L	.	16b-\LL	.	8b-\	.
.	.	.	.	16ddn\	.	.	.
.	.	8b-\	.	16ff\	.	8r	.
.	.	.	.	16aa-\	.	.	.
.	.	8a-\J	.	16ff\	.	8r	.
.	.	.	.	16dd\JJ	.	.	.
=57	=57	=57	=57	=57	=57	=57	=57
4.E-\	.	8B-\L	.	8b-\	.	16gn\LL	.
.	.	.	.	.	.	16b-\	.
.	.	8gn\	.	8r	.	16ee-\	.
.	.	.	.	.	.	16gg\	.
.	.	8b-\J	.	8r	.	16ee-\	.
.	.	.	.	.	.	16b-\JJ	.
4.D\	.	8f\L	.	16f\LL	.	8a-/	.
.	.	.	.	16bn\	.	.	.
.	.	8bn\	.	16dd\	.	8r	.
.	.	.	.	16ff\	.	.	.
.	.	8dd\J	.	16dd\	.	8r	.
.	.	.	.	16b\JJ	.	.	.
=58	=58	=58	=58	=58	=58	=58	=58
4.C/	.	8G\L	.	8cc\	.	16e-/LL	.
.	.	.	.	.	.	16g/	.
.	.	8e-\	.	8r	.	16cc/	.
.	.	.	.	.	.	16ee-/	.
.	.	8g\J	.	8r	.	16cc/	.
.	.	.	.	.	.	16g/JJ	.
4.AA/	.	8c\L	.	16f\LL	.	8f/	.
.	.	.	.	16an\	.	.	.
.	.	8an\	.	16cc\	.	8r	.
.	.	.	.	16ee-\	.	.	.
.	.	8cc\J	.	16cc\	.	8r	.
.	.	.	.	16a\JJ	.	.	.
=59	=59	=59	=59	=59	=59	=59	=59
4.BB-/	.	8B-\L	.	8f/	.	16d/LL	.
.	.	.	.	.	.	16f/	.
.	.	8d\	.	8r	.	16b-/	.
.	.	.	.	.	.	16dd/	.
.	.	8f\J	.	8r	.	16b-/	.
.	.	.	.	.	.	16f/JJ	.
4.GG/	.	8B-\L	.	16g\LL	.	8en/	.
.	.	.	.	16b-\	.	.	.
.	.	8b-\	.	16cc\	.	8r	.
.	.	.	.	16een\	.	.	.
.	.	8en\J	.	16cc\	.	8r	.
.	.	.	.	16b-\JJ	.	.	.
=60	=60	=60	=60	=60	=60	=60	=60
4.FF/	.	8A\L	.	8a/	.	16f\LL	.
.	.	.	.	.	.	16an\	.
.	.	8f\	.	8r	.	16cc\	.
.	.	.	.	.	.	16ff\	.
.	.	8a\J	.	8r	.	16cc\	.
.	.	.	.	.	.	16a\JJ	.
16FF/LL	.	16A\LL	.	4r	.	4f/	.
16AA/	.	16c\	.	.	.	.	.
16C/	.	16f\	.	.	.	.	.
16F/	.	16a\	.	.	.	.	.
16C/	.	16f\	.	8r	.	(16f/LL	mf
16AA/JJ	.	16c\JJ	.	.	.	16g/JJ)	.
=61	=61	=61	=61	=61	=61	=61	=61
8FF/L	mf	8A/L	mf	(2.e-/ 2.c/	.	16a'\LL	.
.	.	.	.	.	.	16b-'\	.
8FF/	.	8A/	.	.	.	16cc'\	.
.	.	.	.	.	.	16dd'\	.
8FF/J	.	8A/J	.	.	.	16ee-'\	.
.	.	.	.	.	.	16ff'\JJ	.
8FF/L	.	8A/L	.	.	.	16ee-\LL	.
.	.	.	.	.	.	16dd\	.
8FF/	.	8A/	.	.	.	16cc\	.
.	.	.	.	.	.	16b-\	.
8FF/J	.	8A/J	.	.	.	16a\	.
.	.	.	.	.	.	16cc\JJ	.
=62	=62	=62	=62	=62	=62	=62	=62
8FF/L	.	8B-/L	.	2.d/)	.	16b-\LL	.
.	.	.	.	.	.	16cc\	.
8FF/	.	8B-/	.	.	.	16dd\	.
.	.	.	.	.	.	16ee-\	.
8FF/J	.	8B-/J	.	.	.	16ff\	.
.	.	.	.	.	.	16gg\JJ	.
8FF/L	.	8B-/L	.	.	.	(16aa\LL	.
.	.	.	.	.	.	16bb-\)	.
8FF/	.	8B-/	.	.	.	(16aa\	.
.	.	.	.	.	.	16bb-\)	.
8FF/J	.	8B-/J	.	.	.	(16f\	.
.	.	.	.	.	.	16g\JJ)	.
=63	=63	=63	=63	=63	=63	=63	=63
8FF/L	.	8A/L	.	(2.e-/ 2.c/	.	16a'\LL	.
.	.	.	.	.	.	16b-'\	.
8FF/	.	8A/	.	.	.	16cc'\	.
.	.	.	.	.	.	16dd'\	.
8FF/J	.	8A/J	.	.	.	16ee-'\	.
.	.	.	.	.	.	16ff'\JJ	.
8FF/L	.	8A/L	.	.	.	16ee-\LL	.
.	.	.	.	.	.	16dd\	.
8FF/	.	8A/	.	.	.	16cc\	.
.	.	.	.	.	.	16b-\	.
8FF/J	.	8A/J	.	.	.	16a\	.
.	.	.	.	.	.	16cc\JJ	.
=64	=64	=64	=64	=64	=64	=64	=64
8FF/L	.	8B-/L	.	2.d/)	.	16b-\LL	.
.	.	.	.	.	.	16cc\	.
8FF/	.	8B-/	.	.	.	16dd\	.
.	.	.	.	.	.	16ee-\	.
8FF/J	.	8B-/J	.	.	.	16ff\	.
.	.	.	.	.	.	16gg\JJ	.
8FF/L	.	8B-/L	.	.	.	(16aa\LL	.
.	.	.	.	.	.	16bb-\)	.
8FF/	.	8B-/	.	.	.	(16aa\	.
.	.	.	.	.	.	16bb-\)	.
8FF/J	.	8B-/J	.	.	.	(16f\	.
.	.	.	.	.	.	16g\JJ)	.
=65	=65	=65	=65	=65	=65	=65	=65
4FF/	.	4A/	.	4e-/ 4c/	.	16a'\LL	.
.	.	.	.	.	.	16b-'\	.
.	.	.	.	.	.	16a'\	.
.	.	.	.	.	.	16b-'\	.
8r	.	8r	.	8r	.	16cc'\	.
.	.	.	.	.	.	16dd'\JJ	.
4r	.	4r	.	4r	.	16ee-\LL	.
.	.	.	.	.	.	16ff\	.
.	.	.	.	.	.	16gg\	.
.	.	.	.	.	.	16aa\	.
8r	.	8r	.	8r	.	(16bb-\	f>
.	.	.	.	.	.	16aa\JJ)	]
=66	=66	=66	=66	=66	=66	=66	=66
2.r	.	4r	.	4r	.	(16gg\LL	.
.	.	.	.	.	.	16ff\)	.
.	.	.	.	.	.	16ee-'\	.
.	.	.	.	.	.	16dd'\	.
.	.	8r	.	(16b-/LL	f>	(16gg\	.
.	.	.	.	16a/JJ)	]	16ff\JJ)	.
.	.	4r	.	(16g/LL	.	(16ee-\LL	.
.	.	.	.	16f/)	.	16dd\)	.
.	.	.	.	16e-'/	.	16cc'\	.
.	.	.	.	16d'/	.	16b-'\	.
.	.	(16b-\LL	f>	(16g/	.	(16ee-\	.
.	.	16a\JJ)	]	16f/JJ)	.	16dd\JJ)	.
=67	=67	=67	=67	=67	=67	=67	=67
4r	.	16g'\LL	.	16e-'/LL	.	16cc'/LL	.
.	.	16f'\	.	16d'/	.	16b-'/	.
.	.	16e-'\	.	16c'/	.	16a'/	.
.	.	16d'\	.	16B-'/	.	16g'/	.
(16FF/LL	f>	16c'\	.	16A'/	.	16f'/	.
16AA/JJ)	]	16A'\JJ	.	16c'/JJ	.	16e-'/JJ	.
8BB-'/L	.	8B-'\L	.	8d'/L	.	(16d/LL	.
.	.	.	.	.	.	16f/)	.
8C'/	.	8c'\	.	8e-'/	.	16e-'/	.
.	.	.	.	.	.	16g'/	.
8D'/J	.	8d'\J	.	8f'/J	.	16f'/	.
.	.	.	.	.	.	16a'/JJ	.
=68	=68	=68	=68	=68	=68	=68	=68
8E-'\L	.	8e-'\L	.	8g'/L	.	16g\LL	.
.	.	.	.	.	.	16b-\	.
8F'\	.	8f'\	.	8a'/	.	16a\	.
.	.	.	.	.	.	16cc\	.
8G'\J	.	8g'\J	.	8b-'/J	.	16b-\	.
.	.	.	.	.	.	16dd\JJ	.
(4A\	.	(4c\	.	4.f/	.	16cc\LL	.
.	.	.	.	.	.	16dd\	.
.	.	.	.	.	.	16ee-\	.
.	.	.	.	.	.	16cc\	.
8B-\)	.	8B-/)	.	.	.	16dd\	.
.	.	.	.	.	.	16b-\JJ	.
=69	=69	=69	=69	=69	=69	=69	=69
8F'\L	.	8A'/L	.	8cc'\L	.	(16een\LL	.
.	.	.	.	.	.	16ff\)	.
8F'\	.	8A'/	.	8cc'\	.	(16ee\	.
.	.	.	.	.	.	16ff\)	.
8F'\J	.	8B-'/J	.	8dd'\J	.	16dd'\	.
.	.	.	.	.	.	16b-'\JJ	.
8F\L	.	8A'/L	.	8cc'\L	.	8ff'\L	.
8r	.	8r	.	8r	.	8r	.
(16B-\L	.	(16B-/L	.	(16dd\L	.	(16dd\L	.
16A\JJ)	.	16c/JJ)	.	16cc\JJ)	.	16ee-\JJ)	.
=70	=70	=70	=70	=70	=70	=70	=70
(16G\LL	.	8d/L	.	(16b-/LL	.	(16ff\LL	.
16F\)	.	.	.	16a/)	.	16gg\)	.
16E-'\	.	8r	.	16g'/	.	16aa'\	.
16D'\	.	.	.	16f'/	.	16bb-'\	.
(16G\	.	(16G/L	.	(16b-/	.	(16b-\	.
16F\JJ)	.	16A/JJ)	.	16a/JJ)	.	16cc\JJ)	.
(16E-\LL	.	8B-/L	.	(16g/LL	.	(16dd\LL	.
16D\)	.	.	.	16f/)	.	16ee-\)	.
16C'\	.	8r	.	16e-'/	.	16ff'\	.
16BB-'\	.	.	.	16d'/	.	16gg'\	.
(16E-\	.	(16E-/L	.	(16g/	.	(16g\	.
16D\JJ)	.	16F/JJ)	.	16f/JJ)	.	16a\JJ)	.
=71	=71	=71	=71	=71	=71	=71	=71
16C'/LL	.	8G/	.	16e-'/LL	.	16b-'\LL	.
16BB-'/	.	.	.	16d'/	.	16cc'\	.
16AA'/	.	8r	.	16c'/	.	16dd'\	.
16GG'/	.	.	.	16B-'/J	.	16ee-'\	.
16FF'/	.	8r	.	8A'/J	.	16ff'\	.
16EE-'/JJ	.	.	.	.	.	16gg'\JJ	.
16DD/LL	.	8f\L	.	8B-/	.	8ff\L	.
16FF/	.	.	.	.	.	.	.
16EE-/	.	8f\	.	8r	.	8ff\	.
16GG/	.	.	.	.	.	.	.
16FF/	.	8f\J	.	8r	.	8ff\J	.
16AA/JJ	.	.	.	.	.	.	.
=72	=72	=72	=72	=72	=72	=72	=72
16GG/LL	.	8f\L	.	4r	.	8ff\L	.
16BB-/	.	.	.	.	.	.	.
16AA/	.	8f\	.	.	.	8ee-\	.
16C/	.	.	.	.	.	.	.
16BB-/	.	8f\J	.	8r	.	8dd\J	.
16D/JJ	.	.	.	.	.	.	.
16E-\LL	.	8g\L	.	8b-\L	.	8cc\L	.
16F\	.	.	.	.	.	.	.
16G\	.	8g\	.	8b-\	.	8cc\	.
16En\	.	.	.	.	.	.	.
16F\	.	8g\J	.	8b-\J	.	8cc\J	.
16G\JJ	.	.	.	.	.	.	.
=73	=73	=73	=73	=73	=73	=73	=73
(16En\LL	.	(16en\LL	.	(4a/	.	(4cc\	.
16F\)	.	16f\)	.	.	.	.	.
(16E\	.	(16e\	.	.	.	.	.
16F\)	.	16f\)	.	.	.	.	.
16D'\	.	16d'\	.	8b-\)	.	8dd\)	.
16BB-'\JJ	.	16B-'\JJ	.	.	.	.	.
(16E\LL	.	(16e\LL	.	(4a/	.	(4cc\	.
16F\)	.	16f\)	.	.	.	.	.
(16E\	.	(16e\	.	.	.	.	.
16F\)	.	16f\)	.	.	.	.	.
16D'\	.	16d'\	.	8b-\)	.	8dd\)	.
16BB-'\JJ	.	16B-'\JJ	.	.	.	.	.
=74	=74	=74	=74	=74	=74	=74	=74
4F\	fp	4f\	fp	4a/	fp	16cc'\LL	fp
.	.	.	.	.	.	(16ee-\	.
.	.	.	.	.	.	16dd\	.
.	.	.	.	.	.	16ee-\	.
8r	.	8r	.	8r	.	16dd\	.
.	.	.	.	.	.	16ee-\JJ)	.
4F\	<	4cc\	<	4ee-\	<	16r	.
.	.	.	.	.	.	(16aa\LL	<
.	.	.	.	.	.	16bb-\	.
.	.	.	.	.	.	16aa\	.
8r	.	8r	.	8r	.	16bb-\	.
.	.	.	.	.	.	16aa\JJ)	.
=75	=75	=75	=75	=75	=75	=75	=75
4F\	.	4a\	.	4ee-\	.	16r	.
.	.	.	.	.	.	(16bbn\LL	.
.	.	.	.	.	.	16ccc\	.
.	.	.	.	.	.	16bb\	.
8r	.	8r	.	8r	.	16ccc\	.
.	.	.	.	.	.	16bb\JJ)	.
4F\	]	4a\	]	4cc\	]	16r	.
.	.	.	.	.	.	(16ddd\LL	.
.	.	.	.	.	.	16eee-\	.
.	.	.	.	.	.	16ddd\	.
8r	.	8r	.	8r	.	16eee-\	.
.	.	.	.	.	.	16ddd\JJ)	]
=76	=76	=76	=76	=76	=76	=76	=76
[2.F\	.	[2.cz\	z	[2.az/	z	(8eee-\L	f
.	.	.	.	.	.	8ccc\	.
.	.	.	.	.	.	8aa\J)	.
.	.	.	.	.	.	(8gg\L	.
.	.	.	.	.	.	8ff\	.
.	.	.	.	.	.	8een\J)	.
=77	=77	=77	=77	=77	=77	=77	=77
4.F\_	.	4.c\_	.	4.a/_	.	[4.ee-\	.
4F;\]	.	4c;\]	.	4a;/]	.	4ee-;\]	.
8r	.	8r	.	8r	.	&(32b-/LLL)	p
.	.	.	.	.	.	32a/	.
.	.	.	.	.	.	32b-/	.
.	.	.	.	.	.	32cc/JJJ&)	.
=78	=78	=78	=78	=78	=78	=78	=78
(4.G-\	p	(4.e-\	p	2.b-\	p	(4dd-'\	.
.	.	.	.	.	.	8dd-'\	.
4.Gn\)	.	4.f-\)	.	.	.	4dd-'\	.
.	.	.	.	.	.	8dd-'\)	.
=79	=79	=79	=79	=79	=79	=79	=79
[4.A-\	.	(4.fn\	.	(4.a-/	.	(4.dd-\	.
8A-\]	.	8e-\)	.	8g-/)	.	8cc\)	.
8r	.	8r	.	8r	.	8r	.
8r	.	8r	.	8r	.	&(32cc\LLL)	.
.	.	.	.	.	.	32b-\	.
.	.	.	.	.	.	32cc\	.
.	.	.	.	.	.	32ddn\JJJ&)	.
=80	=80	=80	=80	=80	=80	=80	=80
(4.A-\	.	2.g-\	.	2.cc\	.	(4ee-'\	.
.	.	.	.	.	.	8ee-'\	.
4.An\)	.	.	.	.	.	4ee-'\	.
.	.	.	.	.	.	8ee-'\)	.
=81	=81	=81	=81	=81	=81	=81	=81
[4.B-\	.	(4.gn\	.	(4.b-\	.	(4.ee-\	.
8B-\]	.	8f\)	.	8a-/)	.	8dd\)	.
8r	.	8r	.	8r	.	8r	.
8r	.	8r	.	8r	.	&(32dd\LLL)	.
.	.	.	.	.	.	32cc\	.
.	.	.	.	.	.	32dd\	.
.	.	.	.	.	.	32een\JJJ&)	.
=82	=82	=82	=82	=82	=82	=82	=82
(4.Bn\	.	2.a-\	.	(4.dd\	.	(4ff'\	.
.	.	.	.	.	.	8ff'\	.
4.c\)	.	.	.	4.cc\)	.	4ff'\	.
.	.	.	.	.	.	8ff'\)	.
=83	=83	=83	=83	=83	=83	=83	=83
(4.d-\	.	[4.g\	.	(4.bn\	.	(4ff\	.
.	.	.	.	.	.	8een\)	.
8c\)	.	8g\]	.	8b-\)	.	4r	.
8r	.	8r	.	8r	.	.	.
8r	.	8r	.	8r	.	(8ccT\	.
!	!	!	!	!	!	! 16bP/LL	!
!	!	!	!	!	!	! 16ccP/JJ)	!
=84	=84	=84	=84	=84	=84	=84	=84
(4.An\	.	(4.g-\	.	(4.cc\	.	(4.ee-p\	.
4B-\)	.	4f\)	.	4b-\)	.	4dd\)	.
8D'\	f	8f'\	f	8f'/	f	8b-'\	f
=85	=85	=85	=85	=85	=85	=85	=85
2.E-\	.	4e-\	.	4gn/	.	(16gn\LL	.
.	.	.	.	.	.	16ee-\	.
.	.	.	.	.	.	16dd\	.
.	.	.	.	.	.	16cc\	.
.	.	8r	.	8r	.	16bn\	.
.	.	.	.	.	.	16cc\JJ)	.
.	.	4r	.	4r	.	(16ff#\LL	.
.	.	.	.	.	.	16gg\	.
.	.	.	.	.	.	16ffn\	.
.	.	.	.	.	.	16ee-\	.
.	.	8r	.	8r	.	16dd\	.
.	.	.	.	.	.	16cc\JJ)	.
=86	=86	=86	=86	=86	=86	=86	=86
8F\L	.	8b-\L	.	8d/L	.	4.b-\	.
8F\	.	8b-\	.	8d/	.	.	.
8F\J	.	8b-\J	.	8d/J	.	.	.
8F\L	.	8an\L	.	8e-/L	.	(4.ccT\	.
8F\	.	8a\	.	8e-/	.	.	.
8F\J	.	8a\J	.	8e-/J	.	.	.
!	!	!	!	!	!	! 16b-P/LL	!
!	!	!	!	!	!	! 16ccP/JJ)	!
=87	=87	=87	=87	=87	=87	=87	=87
4BB-/	.	4b-\	.	4d/	.	(16b-p\LL	.
.	.	.	.	.	.	16a\	.
.	.	.	.	.	.	16b-\	.
.	.	.	.	.	.	16cc\	.
8r	.	8r	.	8r	.	16dd\	.
.	.	.	.	.	.	16ee-\JJ)	.
4r	.	4r	.	4r	.	8ff'\L	>
.	.	.	.	.	.	8ff'\	.
8r	.	8b-'\	p	8dd'\	p	8ff'\J	]
=88	=88	=88	=88	=88	=88	=88	=88
2.r	.	(8b-\L	.	(8dd\L	.	[2.ff\	p
.	.	8cc\	.	8ee-\	.	.	.
.	.	8b-\J)	.	8dd\J)	.	.	.
.	.	4f\	.	8cc'\L)	.	.	.
.	.	.	.	8b-'\	.	.	.
.	.	8f\	.	8cc'\J	.	.	.
=89	=89	=89	=89	=89	=89	=89	=89
2.r	.	4d\	<	4b-\	<	2.ff\_	.
.	.	8b-\	]	8dd\	]	.	.
.	.	(8dd\L	>	(8ff\L	>	.	.
.	.	8cc#\	.	8een\	.	.	.
.	.	8ccn\J)	]	8ee-\J)	]	.	.
=90	=90	=90	=90	=90	=90	=90	=90
(16BB-\LL	p	(8b-\L	.	(8dd\L	.	2.ff\_	.
16C\	.	.	.	.	.	.	.
16D\	.	8cc\	.	8ee-\	.	.	.
16E-\	.	.	.	.	.	.	.
16F\	.	8b-\J)	.	8dd\J)	.	.	.
16G\JJ	.	.	.	.	.	.	.
16A\LL	.	4f\	.	8cc'\L)	.	.	.
16B-\	.	.	.	.	.	.	.
16c\	.	.	.	8b-'\	.	.	.
16d\	.	.	.	.	.	.	.
16e-\	.	8f\	.	8cc'\J	.	.	.
16f\JJ)	.	.	.	.	.	.	.
=91	=91	=91	=91	=91	=91	=91	=91
4d\	.	4d\	<	4b-\	<	2.ff\_	.
8r	.	8b-\	]	8dd\	]	.	.
4r	.	(8dd\L	>	(8ff\L	>	.	.
.	.	8cc#\	.	8een\	.	.	.
8r	.	8ccn\J)	]	8ee-\J)	]	.	.
=92	=92	=92	=92	=92	=92	=92	=92
(16BB-\LL	.	(8b-\L	.	(8dd\L	.	2.ff\_	.
16C\	.	.	.	.	.	.	.
16D\	.	8cc\	.	8ee-\	.	.	.
16E-\	.	.	.	.	.	.	.
16F\	.	8b-\J)	.	8dd\J)	.	.	.
16G\JJ	.	.	.	.	.	.	.
16A\LL	.	4f\	.	8cc'\L)	.	.	.
16B-\	.	.	.	.	.	.	.
16c\	.	.	.	8b-'\	.	.	.
16d\	.	.	.	.	.	.	.
16e-\	.	8f\	.	8cc'\J	.	.	.
16f\JJ)	.	.	.	.	.	.	.
=93	=93	=93	=93	=93	=93	=93	=93
! cresc.	!	! cresc.	!	! cresc.	!	! cresc.	!
8d\L	.	[4.f\	.	8b-'\L	.	8ff\L]	.
8D\	.	.	.	8b-'\	.	8bb-'\	.
8D\J	.	.	.	8b-'\J	.	8bb-'\J	.
8D\L	.	4f\]	.	(8b-/L	.	(8bb-\L	.
8D\	.	.	.	8a/	.	8aa\	.
8D\J	.	8B-/	.	8a-/J)	.	8aa-\J)	.
=94	=94	=94	=94	=94	=94	=94	=94
8E-\L	.	8B-/L	.	(4.f#/	.	(4.ff#\	.
8E-\	.	8B-/	.	.	.	.	.
8E-\J	.	8B-/J	.	.	.	.	.
8E-\L	.	8g\L	.	8g/L)	.	8gg\L)	.
8E-\	.	8g\	.	(16an/L	.	(16aan\L	.
.	.	.	.	16bn/	.	16bbn\	.
8E-\J	.	8g\J	.	16cc/	.	16ccc\	.
.	.	.	.	16dd/JJ)	.	16ddd\JJ)	.
=95	=95	=95	=95	=95	=95	=95	=95
8E-\L	.	8c\L	.	8ee-'\L	.	8eee-'\L	.
8E-\	.	8c\	.	8gg'\	.	8eee-'\	.
8E-\J	.	8c\J	.	8gg'\J	.	8eee-'\J	.
8E-\L	.	8c\L	.	8gg'\L	.	8eee-'\L	.
8E-\	.	8d\	.	8ffn'\	.	8ddd'\	.
8E-\J	.	8e-\J	.	8ee-'\J	.	8ccc'\J	.
=96	=96	=96	=96	=96	=96	=96	=96
8F\L	f	8f\L	f	(8dd\L	f	4.bb-\	f
8F\	.	8f\	.	8ff\)	.	.	.
8F\J	.	8f\J	.	8b-'\J)	.	.	.
8F\L	.	8e-\L	.	(4.aT/	.	(4.cccT\	.
8F\	.	8e-\	.	.	.	.	.
8F\J	.	8e-\J	.	.	.	.	.
!	!	!	!	! 16gP/LL	!	! 16bb-P/LL	!
!	!	!	!	! 16aP/JJ)	!	! 16cccP/JJ)	!
=97	=97	=97	=97	=97	=97	=97	=97
4BB-/	.	16d\LL	.	16b-p\LL	.	4bb-p\	.
.	.	16e-\	.	16cc\	.	.	.
.	.	16f\	.	16dd\	.	.	.
.	.	16g\	.	16ee-\	.	.	.
8r	.	16f\	.	16dd\	.	(8bb-\	.
.	.	16d\JJ	.	16b-\JJ	.	.	.
4F\	.	16c\LL	.	16ee-\LL	.	8aa\L)	.
.	.	16d\	.	16dd\	.	.	.
.	.	16e-\	.	16cc\	.	8aa'\	.
.	.	16d\	.	16b-\	.	.	.
8r	.	16c\	.	16a\	.	(16ccc\L	.
.	.	16e-\JJ	.	16cc\JJ	.	16ff\JJ)	.
=98	=98	=98	=98	=98	=98	=98	=98
4BB-/	.	16d\LL	.	16b-\LL	.	8fff'\L	.
.	.	16c\	.	16cc\	.	.	.
.	.	16B-\	.	16dd\	.	8fff'\	.
.	.	16c\	.	16cc\	.	.	.
8r	.	16d\	.	16b-\	.	(16ddd\L	.
.	.	16f\JJ	.	16dd\JJ	.	16bb-\JJ)	.
4F\	.	16c\LL	.	16ee-\LL	.	8aa'\L	.
.	.	16d\	.	16dd\	.	.	.
.	.	16e-\	.	16cc\	.	8aa'\	.
.	.	16d\	.	16b-\	.	.	.
8r	.	16c\	.	16a\	.	(16ccc\L	.
.	.	16e-\JJ	.	16cc\JJ	.	16ff\JJ)	.
=99	=99	=99	=99	=99	=99	=99	=99
4BB-/	.	16d\LL	.	16b-\LL	.	8bb-'\L	.
.	.	16e-\	.	16cc\	.	.	.
.	.	16f\	.	16dd\	.	8bb-'\	.
.	.	16g\	.	16ee-\	.	.	.
8r	.	16f\	.	16dd\	.	(8bb-\J	mf
.	.	16d\JJ	.	16b-\JJ	.	.	.
8r	.	16c\LL	mf	16ee-\LL	mf	8aa\L)	.
.	.	16d\	.	16dd\	.	.	.
8F\L	mf	16e-\	.	16cc\	.	8aa'\	.
.	.	16d\	.	16b-\	.	.	.
8F\J	.	16c\	.	16a\	.	(16ccc\L	.
.	.	16e-\JJ	.	16cc\JJ	.	16ff\JJ)	.
=100	=100	=100	=100	=100	=100	=100	=100
8r	.	16d\LL	.	16b-\LL	.	8fff'\L	.
.	.	16c\	.	16cc\	.	.	.
8BB-/L	.	16B-\	.	16dd\	.	8fff'\	.
.	.	16c\	.	16cc\	.	.	.
8BB-/J	.	16d\	.	16b-\	.	(16ddd\L	.
.	.	16f\JJ	.	16dd\JJ	.	16bb-\JJ)	.
8r	.	16c\LL	.	16ee-\LL	.	8aa'\L	.
.	.	16d\	.	16dd\	.	.	.
8F\L	.	16e-\	.	16cc\	.	8aa'\	.
.	.	16d\	.	16b-\	.	.	.
8F\J	.	16c\	.	16a\	.	(16ccc\L	.
.	.	16e-\JJ	.	16cc\JJ	.	16ff\JJ)	.
=101	=101	=101	=101	=101	=101	=101	=101
8BB-\L	.	8d\L	.	8b-\L	.	8bb-\L	.
8r	.	8r	.	8r	.	8r	.
(8F\J	p	(16a\L	p	(8cc\J	p	(16eee-\L	p
.	.	16cc\JJ)	.	.	.	16aa\JJ)	.
8B-\L)	.	8b-\L	.	8dd\L)	.	8bb-\L	.
8r	.	8r	.	8r	.	8r	.
(8F\J	pp	(16a\L	pp	(8cc\J	pp	(16eee-\L	pp
.	.	16cc\JJ)	.	.	.	16aa\JJ)	.
=102	=102	=102	=102	=102	=102	=102	=102
8B-\L)	.	8b-\L	.	8dd\L)	.	8bb-\L	.
8r	.	8r	.	8r	.	8r	.
8FF\J	f	(16a\L	f	8cc\J	f	(16eee-\L	.
.	.	16cc\JJ)	.	.	.	16aa\JJ)	.
8BB-'/L	.	8b-'\L	.	8dd'\L	.	8bb-'\L	.
8BB-'/	.	8f'\	.	8dd'\	.	8bb-'\	.
8BB-'/J	.	8d'\J	.	8dd'\J	.	8bb-'\J	.
=103	=103	=103	=103	=103	=103	=103	=103
4BB-/	.	4B-/	.	4dd\	.	4bb-\	.
8r	.	8r	.	8r	.	8r	.
4r	.	4r	.	4r	.	4r	.
==|!	==|!	==|!	==|!	==|!	==|!	==|!	==|!
*-	*-	*-	*-	*-	*-	*-	*-
!!!RWG: Appoggiaturas of spine 'Violino I' need manual editing in measures: 28, 38, 84, 87, 97
!!!RWG: Appoggiaturas of spine 'Violino II' need manual editing in measures: 38, 97
!!!RWG: Key is interpreted using the Humdrum key tool.
!!!GTL: 6 Quators ("Tost I + II")
!!!AFT: stage2
!!!END: 1994/11/09
!!!KEY: 1032453914
!!!EMD: Converted from MuseData to Humdrum Dec 16, 2000, by Andreas Kornstaedt using muse2kern.
!!!EMD: Manual editing by Craig Sapp, Nov 2001
